X:1
T:In the Morning of Joy
T:Anthony Johnson Showalter
T:In the Morning of Joy
T:Public Domain
T:Public Domain
T:Public Domain
C:Anthony Johnson Showalter
Z:Public Domain
%%score ( 1 2 ) ( 3 4 )
L:1/8
M:3/4
K:E
V:1 treble 
V:2 treble 
V:3 bass 
V:4 bass 
V:1
 E>[EF] | [EG]2 [DF]2 E2 | [GB]4 [GB]>[GB] | [Ac]2 [EA]2 [Ac]2 | [GB]4 [GB]>[GB] | %5
w: 1.~When the|et shall sound,|the dead shall|a- rise, And|the splen- dors|
w: 2.~When the|shall ap- pear|His beau- ty|on high, And|shall sum- mon|
w: 3.~O the|of that morn,|our loved ones|we meet! With|the songs of|
 [Ac]2 [Ae]2 [Ec]2 | [EB]2 [EG]2 [EG]>[EG] | [EG]2 [B,F]2 [CE]2 | [DF]4 E>[EF] | [EG]2 [DF]2 E2 | %10
w: im- mor- tal|Shall en- vel- op|the skies; When|the An- gel|Death Shall no|
w: His child- ren|To the courts of|the sky; Shall|the cause of|Lord Have been|
w: the ran- somed|We each o- ther|shall greet, Sing-|ing praise to|Lamb, Thro’ e-|
 [GB]4 [GB]>[GB] | [Ac]2 [EA]2 [Ac]2 | [GB]4 [GB]>[GB] | [Ac]2 [Ae]2 [Ec]2 | [EB]2 [EG]2 E>[EF] | %15
w: er de- stroy,|And the dead|shall a- wak-|en In the|morn- ing of joy:|
w: your em- ploy,|That your soul|may be spot-|less In the|morn- ing of joy?|
w: ni- ty’s years,|With the past|all for- got-|ten With its|sor- rows and tears.|
 [EG]2 E2 [DF]2 | E4 ||"^Refrain" [EG]>[DF] | E2 [EG]2 [GB]2 | [Ge]4 [Ge]>[Bd] | %20
w: |||||
w: the morn- ing|joy,|the morn-|ing of joy,|be ga- thered|
w: |||||
 [Ac]2 [ce]2 [Ac]2 | [GB]4 [GB]>[GB] | [Ac]2 [GB]2 [GB]2 | [GB]2 [EG]2 [EG]>[EG] | %24
w: ||||
w: to glo- ry,|In the morn-|ing of joy;|In the morn- ing|
w: ||||
 [EG]2 [B,F]2 [CE]2 | [DF]4 [EG]>[DF] | E2 [EG]2 [GB]2 | [Ge]4 [Ge]>[Bd] | [Ac]2 [ce]2 [Ac]2 | %29
w: |||||
w: of joy, In|the morn- ing|of joy, We’ll|ga- thered to|glo- ry, In|
w: |||||
 [GB]4 [GB]>[GB] | [Ac]2 [GB]2 [GB]2 | [GB]2 [EG]2 E>[EF] | [EG]2 E2 [DF]2 | E4 |] %34
w: |||||
w: the morn- ing|of joy. *||||
w: |||||
V:2
 E3/2 x/ | x4 E2 | x6 | x6 | x6 | x6 | x6 | x6 | x4 E3/2 x/ | x4 E2 | x6 | x6 | x6 | x6 | %14
w: trump-|And|||||||of|long-|||||
w: King|In|||||||the|all|||||
w: bliss|When|||||||the|ter-|||||
 x4 E3/2 x/ | x2 E2 x2 | E4 || x2 | E2 x4 | x6 | x6 | x6 | x6 | x6 | x6 | x6 | E2 x4 | x6 | x6 | %29
w: |||||||||||||||
w: In|of|In||We’ll||||||||be|||
w: |||||||||||||||
 x6 | x6 | x4 E3/2 x/ | x2 E2 x2 | E4 |] %34
w: |||||
w: |||||
w: |||||
V:3
 [E,G,]>[E,A,] | [E,B,]2 [E,A,]2 [E,G,]2 | [E,E]4 [E,E]>[E,E] | [A,E]2 [A,C]2 [A,E]2 | %4
 [E,E]4 [E,E]>[E,E] | [A,E]2 [A,C]2 A,2 | [E,G,]2 [E,B,]2 [E,B,]>[E,B,] | %7
 [E,B,]2 [D,B,]2 [C,^A,]2 | [B,,B,]4 [E,G,]>[E,A,] | [E,B,]2 [E,A,]2 [E,G,]2 | [E,E]4 [E,E]>[E,E] | %11
 [A,E]2 [A,C]2 [A,E]2 | [E,E]4 [E,E]>[E,E] | [A,E]2 [A,C]2 A,2 | [E,G,]2 [E,B,]2 [G,,B,]>[A,,C] | %15
 [B,,B,]2 [B,,G,]2 [B,,A,]2 | [E,G,]4 || [E,B,]>[E,A,] | [E,G,]2 [E,B,]2 [E,B,]2 | %19
 [E,B,]4 [E,E]>[G,E] | [A,E]2 [A,E]2 [A,E]2 | [E,E]4 [E,E]>[E,E] | [E,E]2 [E,E]2 [E,E]2 | %23
 [E,E]2 [E,B,]2 [E,B,]>[E,B,] | [E,B,]2 [D,B,]2 [C,^A,]2 | [B,,B,]4 [E,B,]>[E,A,] | %26
 [E,G,]2 [E,B,]2 [E,B,]2 | [E,B,]4 [E,E]>[G,E] | [A,E]2 [A,E]2 [A,E]2 | [E,E]4 [E,E]>[E,E] | %30
 [E,E]2 [E,E]2 [E,E]2 | [E,E]2 [E,B,]2 [G,,B,]>[A,,C] | [B,,B,]2 [B,,G,]2 [B,,A,]2 | [E,G,]4 |] %34
V:4
 x2 | x6 | x6 | x6 | x6 | x4 A,2 | x6 | x6 | x6 | x6 | x6 | x6 | x6 | x4 A,2 | x6 | x6 | x4 || x2 | %18
 x6 | x6 | x6 | x6 | x6 | x6 | x6 | x6 | x6 | x6 | x6 | x6 | x6 | x6 | x6 | x4 |] %34

